X: 42571
T: When Sick Is It Tea That You Want?
R: jig
M: 6/8
K: Dmajor
|:Add dcB|AdB AFG|Add cde|fdB BAF|
Add dcB|AdB AFG|Add cde|1 fdc d2B:|2 fdc dfg||
|:afd dcd|BGF G2e|bge e2d|cAA AFG|
Add dcB|AdB AGF|Add cde|1 fdc dfg:|2 fdc dcB||

